svgs/sharp-solid/light-switch-off.svg

<svg xmlns="http://www.w3.org/2000/svg" viewBox="0 0 384 512"><!--! Font Awesome Pro 6.6.0 by @fontawesome - https://fontawesome.com License - https://fontawesome.com/license (Commercial License) Copyright 2024 Fonticons, Inc. --><path d="M384 512L0 512 0 0 384 0l0 512zM96 416l192 0 0-320L96 96l0 320zm96 32a16 16 0 1 0 0 32 16 16 0 1 0 0-32zm0-416a16 16 0 1 0 0 32 16 16 0 1 0 0-32zm64 352l-128 0 0-128 128 0 0 128z"/></svg>

<svg xmlns="http://www.w3.org/2000/svg" viewBox="0 0 384 512"><!--! Font Awesome Pro 6.4.0 by @fontawesome - https://fontawesome.com License - https://fontawesome.com/license (Commercial License) Copyright 2023 Fonticons, Inc. --><path d="M384 512H0V0H384V512zM96 416H288V96H96V416zm96 32a16 16 0 1 0 0 32 16 16 0 1 0 0-32zm0-416a16 16 0 1 0 0 32 16 16 0 1 0 0-32zm64 352H128V256H256V384z"/></svg>
